X:1
T:6. Virgo Gloriosa
T:6. Virgo Gloriosa
T:Johan August Söderman (1832 - 1876)
C:Johan August Söderman
C:(1832 - 1876)
%%score 1 [ ( 2 3 ) ( 4 5 ) ] { ( 6 8 ) | ( 7 9 ) }
L:1/8
Q:1/4=92
M:4/4
K:Cmin
V:1 treble nm="Soprano solo" snm="Ss."
V:2 treble nm="Soprano" snm="S"
V:3 treble 
V:4 treble nm="Alto" snm="A"
V:5 treble 
V:6 treble nm="Organo" snm="Org."
V:8 treble 
V:7 bass 
V:9 bass 
V:1
"^Andante""^Andante" z8 | z8 | z8 | z8 | z8 | z8 | z8 | z8 | z8 | z8 | z8 | z8 | z8 || %13
w: |||||||||||||
"^dolce""^solo" G3 G A2 G2 | G4 F2 (FG) | A3!<(! A c2 e2!<)! | g4!>(! f2 (BA)!>)! | %17
w: San- cta, te pre-|ca- mur, Te _|Vo- tis ve- ne-|ra- mur, O _|
 G3 E!<(! G2 B2!<)! | d4!>(! c2 G2!>)! | (B4 =A4) |!>(! (B6!>)! A2) | G3 G{/B} A2 G2 | G4 F2 (FG) | %23
w: sanc- ta te pre-|ca- mur, pre-|ca- *|mur. _|Vir- go, fac sal-|va- mur, Te _|
 A3!<(! A c2 e2!<)! |!f! g6 f2 | e3 e d2 c2 | (B4 E2) A2 | G6 F2 | E6 z2 || z8 | z8 | z8 | z8 | %33
w: vo- tis ve- ne-|ra- mur,|fac sal- va- mur|ma- * li|vin- cu-|lis.|||||
 z8 | z8 | z8 | z8 | z8 | z8 | z8 | z8 | !fermata!z8 |] %42
w: |||||||||
V:2
 z8 |!p!"^tutti" C3 D E2 D2 | D4 E2 z2 |!<(! E3 F G2 F2!<)! | F4 G2 z2 | (G3 E C2 D2 | %6
w: |Vir- go glo- ri-|o- sa|Ma- ter do- lo-|ro- sa|No- * * *|
 E4)!>(! D2 C2!>)! | D4 D4 | C6 z2 |!mf! G3 G!<(! G2 A2!<)! |!>(! c4!>)! B2 z2 | %11
w: * bis be-|ni- gna|sis|Le- nis nos tu-|e- re|
 E3!<(! E E2 F2!<)! |!>(! A4 G2!>)! z2 || z8 | z8 | z8 | z8 | z8 | z8 | z8 | z8 | z8 | z8 | z8 | %24
w: Tri- sti- bus me-|de- re.||||||||||||
 z8 | z8 | z8 | z8 | z8 ||!mf!"^tutti" G3 G!<(! G2 A2!<)! |!>(! c4!>)! B2 z2 | %31
w: |||||Le- nis nos tu-|e- re|
!p! E3!<(! E E2 F2!<)! |!>(! A4 G2!>)! z2 | C3 D E2 D2 | D4 E2 z2 | E3 F G2 F2 |!<(! F4 G2!<)! z2 | %37
w: Tri- sti- bus me-|de- re.|Vir- go glo- ri-|o- sa|Ma- ter do- lo-|ro- sa|
!>(! (G3 E C2 D2!>)! | E4) D2 C2 | D4 D4 | C8 | !fermata!z8 |] %42
w: No- * * *|* bis be-|ni- gna|sis.||
V:3
 x8 | x8 | x8 | x8 | x8 | x8 | x8 | x8 | x8 | x8 | A4 G2 z2 | x8 | D4 D2 z2 || x8 | x8 | x8 | x8 | %17
 x8 | x8 | x8 | x8 | x8 | x8 | x8 | x8 | x8 | x8 | x8 | x8 || x8 | A4 G2 z2 | x8 | D4 D2 z2 | x8 | %34
 x8 | x8 | x8 | x8 | x8 | x8 | x8 | x8 |] %42
V:4
 z8 |!p!"^tutti" C3 D E2 D2 | D4 E2 z2 |!<(! E3 F G2 F2!<)! | F4 G2 z2 | (G3 E C2 D2 | %6
w: |Vir- go glo- ri-|o- sa|Ma- ter do- lo-|ro- sa|No- * * *|
 E4)!>(! D2 C2!>)! | D4 D4 | C6 z2 |!mf! E3 E!<(! E2 E2!<)! |!>(! D4!>)! E2 z2 | %11
w: * bis be-|ni- gna|sis.|Le- nis nos tu-|e- re|
 C3!<(! C C2 C2!<)! |!>(! C4!>)! =B,2 z2 || z8 | z8 | z8 | z8 | z8 | z8 | z8 | z8 | z8 | z8 | z8 | %24
w: Tri- sti- bus me-|de- re.||||||||||||
 z8 | z8 | z8 | z8 | z8 ||!mf!"^tutti" E3 E!<(! E2 E2!<)! |!>(! D4 E2!>)! z2 | %31
w: |||||Le- nis nos tu-|e- re|
!p! C3!<(! C C2 C2!<)! |!>(! C4!>)! =B,2 z2 | C3 D E2 D2 | D4 E2 z2 | E3 F G2 F2 | %36
w: Tri- sti- bus me-|de- re.|Vir- go glo- ri-|o- sa|Ma- ter do- lo-|
!<(! F4!<)! G2 z2 |!>(! (G3 E C2 D2!>)! | E4) D2 C2 | D4 D4 | C8 | !fermata!z8 |] %42
w: ro- sa|No- * * *|* bis be-|ni- gna|sis.||
V:5
 x8 | x8 | x8 | x8 | x8 | x8 | x8 | x8 | x8 | C3 C C2 _C2 | B,4 E2 z2 | C3 C C2 A,2 | F,4 G,2 z2 || %13
 x8 | x8 | x8 | x8 | x8 | x8 | x8 | x8 | x8 | x8 | x8 | x8 | x8 | x8 | x8 | x8 || C3 C C2 _C2 | %30
 B,4 E2 z2 | C3 C C2 A,2 | F,4 G,2 z2 | x8 | x8 | x8 | x8 | x8 | x8 | x8 | x8 | x8 |] %42
V:6
 [G,CG]8- | [G,CG]8- | [G,CG]8- | [G,CG]8- | [G,CG]8- | [G,CG]8- | [G,CG]8 | [G,-DG-]8 | [G,CG]8 | %9
 z8 | z8 | z8 | z8 || (G4 A2 G2) | (G4 F2 (FG) | c6) [ce]2 | B8 | x8 | d4 c4- | [EFc]8 | (B6 A2) | %21
 (G4{/B} A2 G2) | (G4 F4) | (A4!<(! c2!<)! e2) |!f! (g6 f2) | ([EGce]4 d2 c2) | (B4 E2 A2) | %27
 (G6 F2 | E4- E2) z2 || z8 | z8 | z8 | z8 | [G,CG]8- | [G,CG]8- | [G,CG]8- | [G,CG]8- | [G,CG]8- | %38
 [G,CG-]8 | [DG-]8 | G8 | !fermata!z8 |] %42
V:7
!p! [C,,G,,C,]8- | [C,,G,,C,]8- | [C,,G,,C,]8- | [C,,G,,C,]8- | [C,,G,,C,]8- | [C,,G,,C,]8- | %6
 [C,,G,,C,]8 | G,,8- | [C,,G,,C,]8 | z8 | z8 | z8 | z8 ||!p! (B,4 C2 B,2) | A,4- A,2 (A,G,) | %15
 [F,A,]8- | [D,F,A,B,]8 | [E,G,B,]8- | [C,E,G,B,]8 | F,8- | [B,,F,B,]8 | (B,4 C2 B,2) | %22
 (=E,4 F,4) | [A,C]8 | [D,F,G,=B,]8 |!>(! [C,E,G,C]4 [A,,E,A,]4!>)! | [E,G,]4 (E,2 C,2) | %27
 [B,,A,]8 | [E,G,]4- [E,G,]2 z2 || z8 | z8 | z8 | z8 | [C,,G,,C,]8- | [C,,G,,C,]8- | [C,,G,,C,]8- | %36
 [C,,G,,C,]8- | [C,,G,,C,]8- | [C,,G,,C,]8 | [G,,G,]8- | [C,,-G,,C,G,]8 | !fermata!C,,8 |] %42
V:8
 x8 | x8 | x8 | x8 | x8 | x8 | x8 | x8 | x8 | x8 | x8 | x8 | x8 || _D8 | [Cc]8 | [CF-A-]8 | [FA]8 | %17
 [EGB]8- | [EGB-]8 | B4 =A4 | [DF]8 | _D8 | [Cc]8 | [FA]8 | [FG=Bd]8 | E4 [EA]4 | [B,E]4 [A,E-]4 | %27
 E4 D4 | x8 || x8 | x8 | x8 | x8 | x8 | x8 | x8 | x8 | x8 | x8 | C4 =B,4 | C8 | x8 |] %42
V:9
 x8 | x8 | x8 | x8 | x8 | x8 | x8 | x8 | x8 | x8 | x8 | x8 | x8 || E,8 | E,8- | E,8 | x8 | %17
 E,4 D,4 | x8 | x8 | x8 | E,8 | [A,,A,]8 | (F,4 E,4) | x8 | x8 | G,,4 (C,2 F,,2) | x8 | x8 || x8 | %30
 x8 | x8 | x8 | x8 | x8 | x8 | x8 | x8 | x8 | x8 | x8 | x8 |] %42

